X:1
T:Title
%%score 1 { 2 | 3 }
L:1/8
Q:1/4=105
M:4/4
K:Eb
V:1 treble nm="Grand Piano, Soprano"
V:2 treble nm="Choir Pad, From the Cyber Hymnal™"
V:3 bass 
V:1
 [EG]2 [GB]2 [EA] [Ac]3 | [GB]3 [Ge] [Ac][GB][EG]E | [EG]2 [GB]2 [GB]3 [EG] | [DF]6 z2 | %4
w: By~Edmund~Simon~Lorenz * * *||||
 [EG]2 [GB]2 [EA]2 [Ac]2 | [GB]3 [Ge] [Ac][GB][EG][Ge] | [Fd]3 [Fd] [Fd]2 [Ec]2 | [DB]6 [DF]2- | %8
w: ||||
 [DF][DF] [DF]2 [CE][DF] [EG]2 | [EA]2 [EG]4 [FA]2- | [FA][FA] [FA]2 [EG][FA] [EB]2 | %11
w: |||
 [Ec]2 [EB]4 [EB]2 | [Ge]2 [Ge]2- [Ge][EG] [EA]2 | [EB]2 [Ec]2 [Ee][Ec] [EB]2- | %14
w: |||
 [EB][FA] [EG]2 [DF]2 E2- | E4 z2 [B,F]2 | [B,F]2 [B,F]2- [B,F][G,E] [B,F]2 | %17
w: |||
 [EG]2 [FA]2 z2 [EG]2 | [EG]2 [EG]2- [EG][B,F] [EG]2 | [FA]2 [GB]2 z2 [EB]2 | %20
w: |||
 [Ge]2 [Ge]2- [Ge][EG] [EA]2 | [EB]2 [Ec]2 [Ee][Ec] [EB]2- | [EB][FA] [EG]2 [DF]2 E2- | E6 z2 |] %24
w: ||||
V:2
 B,2 E2 C E3 | E3 B, EE[K:bass]B,G, | B,2 B,2 B,3 B, | B,6 z2 | B,2 E2 C2 E2 | %5
 E3 B, EE[K:bass]B,B, | B,3 B, =A,2 A,2 | B,6 B,2- | B,B, B,2 B,2 B,2 | C2 B,4 B,2- | %10
 B,B, B,2 B,A, G,2 | A,2 G,4 G,2 | B,2 B,2- B,B, A,2 | G,2 A,2 CA, B,2- | B,C B,2 A,2 G,2- | %15
 G,4 z2 F,2 | F,2 F,2- F,E, F,2 | G,2 A,2 z2 G,2 | G,2 G,2- G,F, G,2 | A,2 B,2 z2 G,2 | %20
 B,2 B,2- B,B, A,2 | G,2 A,2 CA, B,2- | B,C B,2 A,2 G,2- | G,6 z2 |] %24
V:3
 E,2 E,2 E, E,3 | E,3 E, E,E,E,E, | E,2 E,2 E,3 E, | B,,6 z2 | E,2 E,2 E,2 E,2 | E,3 E, E,E,E,E, | %6
 F,3 F, F,2 F,2 | B,,6 B,,2- | B,,B,, B,,2 B,,2 E,2 | E,2 E,4 B,,2- | B,,B,, B,,2 B,,2 E,2 | %11
 E,2 E,4 E,2 | E,2 E,2- E,_D, C,2 | B,,2 A,,2 A,,A,, G,,2- | G,,A,, B,,2 B,,2 E,2- | E,4 z2 B,,2 | %16
 B,,2 B,,2- B,,G,, B,,2 | E,2 F,2 z2 E,2 | E,2 E,2- E,B,, E,2 | F,2 G,2 z2 E,2 | %20
 E,2 E,2- E,_D, C,2 | B,,2 A,,2 A,,A,, G,,2- | G,,A,, B,,2 B,,2 E,2- | E,6 z2 |] %24

